X:1
T:Drink To Me Only With Thine Eyes
T:Drink To Me Only With Thine Eyes
T:Anon.
C:Anon.
%%score [ 1 2 3 4 ]
L:1/8
Q:1/4=60
M:6/8
K:Eb
V:1 treble nm="Soprano"
V:2 treble nm="Alto"
V:3 treble-8 nm="Tenor"
V:4 bass nm="Bass"
V:1
 G G G A2 A | (BA) G (FG) A | (BE) A G2 F | E3- E2 z | G G G A2 A | (BA) G (FG) A | (BE) A G2 F | %7
w: 1.Drink to me on- ly|with _ thine eyes, _ and|I _ will pledge with|mine, _|Or leave a kiss with-|in _ the cup _ And|I'll _ not ask for|
w: 2.I sent thee late a|ro- * sy wreath, _ not|so _ much hon- 'ring|thee _|As giv- ing it a|hope _ that there _ it|could _ not with- ered|
 E3- E z B | (BG) B e2 B | (BG) B B2 B | c2 B (BA) G | (G3 F2) z | G G G A2 A | (BA) G (FG) A | %14
w: wine; _ The|thirst _ that from the|soul _ doth rise, Doth|ask a drink _ di-|vine; _|But might I of Jove's|nec- * tar sup _ I|
w: be; _ But|thou _ there- on didst|on- * ly breathe, And|sent'st it back _ to|me, _|Since when it grows and|smells, _ I swear, _ Not|
 (BE) A G2 F | E3- E2 z |] %16
w: would _ not change for|thine. _|
w: of _ it- self but|thee. _|
V:2
 E E E D2 D | (ED) E (FE) D | E2 E (EC) D | E3- E2 z | E E E D2 D | (ED) E (FE) D | E2 E (EC) D | %7
w: 1.Drink to me on- ly|with _ thine eyes, _ and|I will pledge _ with|mine, _|Or leave a kiss with-|in _ the cup _ And|I'll not ask _ for|
w: 2.I sent thee late a|ro- * sy wreath, _ not|so much hon- * 'ring|thee _|As giv- ing it a|hope _ that there _ it|could not with- * ered|
 E3- E z E | E2 E G2 G | (GE) E (ED) E | E2 E D2 E | (E2 C D2) z | E D C E2 D | (ED) _D (C=E) F | %14
w: wine; _ The|thirst that from the|soul _ doth rise, _ Doth|ask a drink di-|vine; _ _|But might I of Jove's|nec- * tar sup _ I|
w: be; _ But|thou there- on didst|on- * ly breathe, _ And|sent'st it back to|me, _ _|Since when it grows and|smells, _ I swear, _ Not|
 E2 E (EC) D | E3- E2 z |] %16
w: would not change _ for|thine. _|
w: of it- self _ but|thee. _|
V:3
 B B B B2 B | B2 B B2 B | B2 c B2 A | G3- G2 z | B B B B2 B | B2 B B2 B | B2 c B2 A | G3- G z G | %8
w: 1.Drink to me on- ly|with thine eyes, and|I will pledge with|mine, _|Or leave a kiss with-|in the cup And|I'll not ask for|wine; _ The|
w: 2.I sent thee late a|ro- sy wreath, not|so much hon- 'ring|thee _|As giv- ing it a|hope that there it|could not with- ered|be; _ But|
 (GB) G B2 e | (eB) G (GA) B | A2 B B2 B | B3- B2 z | B B B B2 B | B2 B c2 c | G2 c B2 A | %15
w: thirst _ that from the|soul _ doth rise, _ Doth|ask a drink di-|vine; _|But might I of Jove's|nec- tar sup I|would not change for|
w: thou _ there- on didst|on- * ly breathe, _ And|sent'st it back to|me, _|Since when it grows and|smells, I swear, Not|of it- self but|
 B3- B2 z |] %16
w: thine. _|
w: thee. _|
V:4
 E, E, E, F,2 F, | (G,F,) E, (D,E,) F, | G,2 A, B,2 B,, | E,3- E,2 z | E, E, E, F,2 F, | %5
w: 1.Drink to me on- ly|with _ thine eyes, _ and|I will pledge with|mine, _|Or leave a kiss with-|
w: 2.I sent thee late a|ro- * sy wreath, _ not|so much hon- 'ring|thee _|As giv- ing it a|
 (G,F,) E, (D,E,) F, | G,2 A, B,2 B,, | E,3- E, z E, | E,2 E, E,2 E, | E,2 E, E,2 G, | %10
w: in _ the cup _ And|I'll not ask for|wine; _ The|thirst that from the|soul doth rise, Doth|
w: hope _ that there _ it|could not with- ered|be; _ But|thou there- on didst|on- ly breathe, And|
 A,2 G, F,2 E, | B,,3- B,,2 z | E, E, E, F,2 F, | (G,F,) E, (A,G,) F, | B,,2 B,, B,,2 B,, | %15
w: ask a drink di-|vine; _|But might I of Jove's|nec- * tar sup _ I|would not change for|
w: sent'st it back to|me, _|Since when it grows and|smells, _ I swear, _ Not|of it- self but|
 G,3- G,2 z |] %16
w: thine. _|
w: thee. _|

